X:1
T:An Gille Donn
L:1/8
M:4/4
I:linebreak $
K:C
V:1 treble 
V:1
 GDEF G2 AG | (3FDC D6 | DFGA c c2 G | (3Adc A6 | GCDF G2 AG | (3FDC D6 ||$ AAAG (3GFD z C | %7
 (3DEC DD z4 | FGAA cc z G | (3A/A/dc A6 x/24 || %10
